X:1
T:Dabbling in the Dew
M:4/4
L:1/8
K:C
 A,| A,2 A,B, CC B,B,| A,A, A,B, A,2 B,B,| C2 B,B, A,2 GG| A2 G2 E3|\
 E| A2 GF G2 ED| EC B,A, G,2 A,B,| CA, GF E2 E3/2 D/2| E2 A,2 A,2 z||\
